X: 1
T: Jenny Lind
C: Anton Wallerstein (1846)
%D:1846
R: polka
S: Fiddle Hell Online 2020-11-05
Z: 2020 John Chambers <jc:trillian.mit.edu>
M: 2/4
L: 1/16
K: D
|:\
F2A2 G2B2 | A2f2 f4   | g2e2 e2de | f2d2 B2A2 |
F2A2 G2B2 | A2f2 f2ef | g2e2 ABc2 |1 d6 AG :|2 d6 || [K:=c][K:G]
|: ef |\
g2e2 efge | d2B2 B4 | c2A2 ABcd | e2d2 d2ef |
g2e2 efge | d2B2 B4 | c2A2 DEF2 |1 G4 G2 :|2 G8 |]
